X:1426
T:The Plaid Mantle
M:C|
L:1/8
N:"collected by McFadden"
B:O'Neill's 1426
Z:"Transcribed by Bob Safranek, rjs@gsp.org"
K:D
AG|FEDE FGAF|GBAG FDDE|GFEDE FGAg|fdec dcAG|
FEDE FGAF|GBAG FDDE|GFEDE FGAg|faec d2||
de|fedc dcAF|GBAG FDDg|fdec  dcAg|faec d2 de|
fedc dcAF|GBAG FDDE|GFEDE FGAg|faec d2|]
